Numix-GalliumOS/16/mimetypes/application-mathematica.svg

<?xml version="1.0" encoding="UTF-8" standalone="no"?>
<svg
   xmlns:dc="http://purl.org/dc/elements/1.1/"
   xmlns:cc="http://creativecommons.org/ns#"
   xmlns:rdf="http://www.w3.org/1999/02/22-rdf-syntax-ns#"
   xmlns:svg="http://www.w3.org/2000/svg"
   xmlns="http://www.w3.org/2000/svg"
   xmlns:sodipodi="http://sodipodi.sourceforge.net/DTD/sodipodi-0.dtd"
   xmlns:inkscape="http://www.inkscape.org/namespaces/inkscape"
   width="16"
   viewBox="0 0 16 16"
   height="16"
   id="svg2"
   version="1.1"
   inkscape:version="0.91 r"
   sodipodi:docname="application-mathematica.svg"
   inkscape:export-filename="/home/andreas/application-mathematica.png"
   inkscape:export-xdpi="500"
   inkscape:export-ydpi="500">
  <metadata
     id="metadata16">
    <rdf:RDF>
      <cc:Work
         rdf:about="">
        <dc:format>image/svg+xml</dc:format>
        <dc:type
           rdf:resource="http://purl.org/dc/dcmitype/StillImage" />
        <dc:title />
      </cc:Work>
    </rdf:RDF>
  </metadata>
  <sodipodi:namedview
     pagecolor="#ffffff"
     bordercolor="#666666"
     borderopacity="1"
     objecttolerance="10"
     gridtolerance="10"
     guidetolerance="10"
     inkscape:pageopacity="0"
     inkscape:pageshadow="2"
     inkscape:window-width="1920"
     inkscape:window-height="1056"
     id="namedview14"
     showgrid="false"
     inkscape:zoom="9.833333"
     inkscape:cx="-25.27439"
     inkscape:cy="7.707815"
     inkscape:window-x="0"
     inkscape:window-y="24"
     inkscape:window-maximized="1"
     inkscape:current-layer="svg2" />
  <defs
     id="defs4">
    <clipPath
       id="clipPath-829539691">
      <g
         id="g17-6"
         transform="translate(0,-1004.3622)">
        <path
           id="path19-2"
           style="fill:#1890d0"
           transform="matrix(15.333333,0,0,11.5,414.99999,878.8622)"
           d="m -24,13 c 0,1.105 -0.672,2 -1.5,2 -0.828,0 -1.5,-0.895 -1.5,-2 0,-1.105 0.672,-2 1.5,-2 0.828,0 1.5,0.895 1.5,2 z"
           inkscape:connector-curvature="0" />
      </g>
    </clipPath>
  </defs>
  <path
     style="fill:#ecccd0;fill-opacity:1"
     d="M 2.6666667,0 C 2.3238095,0 2,0.337888 2,0.695652 L 2,15.304348 C 2,15.642236 2.3428571,16 2.6666667,16 L 13.333333,16 C 13.657143,16 14,15.642236 14,15.304348 L 14,4.521739 9.666667,0 Z"
     id="path6"
     inkscape:connector-curvature="0" />
  <path
     style="fill-opacity:0.19599998"
     d="m 9.666667,3.826087 0.02083,0.02174 0.05208,-0.02174 -0.07292,0 z M 10.333333,4.521739 14,8.347826 l 0,-3.826087 -3.666667,0 z"
     id="path8"
     inkscape:connector-curvature="0" />
  <path
     style="fill:#ffffff;fill-opacity:0.39200003"
     d="M 9.666667,0 14,4.521739 l -3.666667,0 c -0.323809,0 -0.666666,-0.357764 -0.666666,-0.695652 L 9.666667,0 Z"
     id="path10"
     inkscape:connector-curvature="0" />
  <g
     transform="matrix(0.34615385,0,0,0.34612722,-0.3076924,1.6946774)"
     id="g45">
    <g
       id="g47"
       clip-path="url(#clipPath-829539691)">
      <!-- color: #f2dbde -->
      <g
         id="g49">
        <path
           inkscape:connector-curvature="0"
           d="m 24.844,10.996 c -2.43,7.797 -3.57,5.668 -8.77,1.945 3.09,7.727 2.609,6.449 -3.5,5.996 5.285,3.996 4.344,5.355 -1.574,8.324 6.094,0.043 8.219,-0.418 5.508,5.305 5.551,-2.824 4.898,-2.852 6.566,4.43 2.699,-7.316 2.602,-6.566 8.262,-3.055 -2.156,-5.926 -2.262,-6.086 4.875,-4.582 -6.05,-5.105 -4.762,-5.469 0.789,-9.01 -7.855,0.285 -6.914,-0.273 -4.684,-6.605 -6.426,4.941 -5.93,3.363 -7.473,-2.75 m 0,0"
           style="fill:#ec4c45;fill-opacity:1;fill-rule:nonzero;stroke:none"
           id="path51" />
        <path
           inkscape:connector-curvature="0"
           d="m 17.445,17.996 c 2.727,5.324 0.902,6.469 -3.449,9.34 6.285,-0.059 7.109,0.363 7.887,6.66 2.664,-5.305 3.465,-6.68 9.113,-5.168 -3.582,-3.816 -4.379,-5.379 -2.613,-10.371 -4.438,2.875 -6.438,2.102 -10.938,-0.461 m 0,0"
           style="fill:#ff6f7f;fill-opacity:1;fill-rule:nonzero;stroke:none"
           id="path53" />
        <path
           inkscape:connector-curvature="0"
           d="m 23.605,19.996 c 1.594,2.543 1.672,2.574 4.398,3.586 -2.727,1.18 -2.289,1.16 -2.098,4.219 -2.215,-1.844 -2.922,-1.563 -5.344,0.195 1.168,-3.137 0.969,-3.297 -1.559,-5.242 3.03,-0.098 3.445,-0.055 4.602,-2.758 m 0,0"
           style="fill:#ffb2cd;fill-opacity:1;fill-rule:nonzero;stroke:none"
           id="path55" />
      </g>
    </g>
  </g>
</svg>

<svg xmlns="http://www.w3.org/2000/svg" viewBox="0 0 16 16">
 <path d="m 2.667 0 c -0.343 0 -0.667 0.338 -0.667 0.696 l 0 14.609 c 0 0.338 0.343 0.696 0.667 0.696 l 10.667 0 c 0.324 0 0.667 -0.358 0.667 -0.696 l 0 -10.783 -4.333 -4.522" style="fill:#ecccd0;fill-opacity:1"/>
 <path d="m 9.667 3.826 0.021 0.022 0.052 -0.022 -0.073 0 z m 0.667 0.696 3.667 3.826 l 0 -3.826 -3.667 0 z" style="fill-opacity:0.196"/>
 <path d="m 9.667 0 4.333 4.522 l -3.667 0 c -0.324 0 -0.667 -0.358 -0.667 -0.696 l 0 -3.826" style="fill:#fff;fill-opacity:0.392"/>
 <g transform="matrix(0.34615385,0,0,0.34612722,-0.3076924,1.6946774)">
  <!-- color: #f2dbde -->
  <g>
   <path d="m 24.844 10.996 c -2.43 7.797 -3.57 5.668 -8.77 1.945 3.09 7.727 2.609 6.449 -3.5 5.996 5.285 3.996 4.344 5.355 -1.574 8.324 6.094 0.043 8.219 -0.418 5.508 5.305 5.551 -2.824 4.898 -2.852 6.566 4.43 2.699 -7.316 2.602 -6.566 8.262 -3.055 -2.156 -5.926 -2.262 -6.086 4.875 -4.582 -6.05 -5.105 -4.762 -5.469 0.789 -9.01 -7.855 0.285 -6.914 -0.273 -4.684 -6.605 -6.426 4.941 -5.93 3.363 -7.473 -2.75 m 0 0" style="fill:#ec4c45;fill-opacity:1;stroke:none;fill-rule:nonzero"/>
   <path d="m 17.445 17.996 c 2.727 5.324 0.902 6.469 -3.449 9.34 6.285 -0.059 7.109 0.363 7.887 6.66 2.664 -5.305 3.465 -6.68 9.113 -5.168 -3.582 -3.816 -4.379 -5.379 -2.613 -10.371 -4.438 2.875 -6.438 2.102 -10.938 -0.461 m 0 0" style="fill:#ff6f7f;fill-opacity:1;stroke:none;fill-rule:nonzero"/>
   <path d="m 23.605 19.996 c 1.594 2.543 1.672 2.574 4.398 3.586 -2.727 1.18 -2.289 1.16 -2.098 4.219 -2.215 -1.844 -2.922 -1.563 -5.344 0.195 1.168 -3.137 0.969 -3.297 -1.559 -5.242 3.03 -0.098 3.445 -0.055 4.602 -2.758 m 0 0" style="fill:#ffb2cd;fill-opacity:1;stroke:none;fill-rule:nonzero"/>
  </g>
 </g>
</svg>
